svgs/sharp-light/game-board-simple.svg

<svg xmlns="http://www.w3.org/2000/svg" viewBox="0 0 448 512"><!--! Font Awesome Pro 6.6.0 by @fontawesome - https://fontawesome.com License - https://fontawesome.com/license (Commercial License) Copyright 2024 Fonticons, Inc. --><path d="M32 64l0 384 384 0 0-384L32 64zM0 32l32 0 384 0 32 0 0 32 0 384 0 32-32 0L32 480 0 480l0-32L0 64 0 32zM80 96l144 0 16 0 0 16 0 128 128 0 16 0 0 16 0 144 0 16-16 0-144 0-16 0 0-16 0-128L80 272l-16 0 0-16 0-144 0-16 16 0zm128 32L96 128l0 112 112 0 0-112zm32 256l112 0 0-112-112 0 0 112z"/></svg>

<svg xmlns="http://www.w3.org/2000/svg" viewBox="0 0 448 512"><!--! Font Awesome Pro 6.4.2 by @fontawesome - https://fontawesome.com License - https://fontawesome.com/license (Commercial License) Copyright 2023 Fonticons, Inc. --><path d="M32 64V448H416V64H32zM0 32H32 416h32V64 448v32H416 32 0V448 64 32zM80 96H224h16v16V240H368h16v16V400v16H368 224 208V400 272H80 64V256 112 96H80zm128 32H96V240H208V128zm32 256H352V272H240V384z"/></svg>
